!!!COA: des Prez, Josquin
!!!CDT: ~1450-1521/08/27
!!!OTL: Celi enarrant gloriam dei
!!!AGN: Motet
!!!SCT: NJE 15.7
!!!SCA: New Josquin Edition 15.7
!!!voices: 4
**kern	**kern	**kern	**kern
*part4	*part3	*part2	*part1
*staff4	*staff3	*staff2	*staff1
*Ivox	*Ivox	*Ivox	*Ivox
*I"Bassus	*I"Tenor	*I"Altus	*I"Discantus
*I'B	*I'T	*I'A	*I'D
*>[A,B,C]	*>[A,B,C]	*>[A,B,C]	*>[A,B,C]
*>A	*>A	*>A	*>A
*clefF4	*clefGv2	*clefGv2	*clefG2
*k[]	*k[]	*k[]	*k[]
*a:	*a:	*a:	*a:
*M2/1	*M2/1	*M2/1	*M2/1
*met(C|)	*met(C|)	*met(C|)	*met(C|)
!!section: Prima pars: Celi enarrant
!!!OMD: Prima pars
=	=	=	=
0E	0r	0r	0r
=3	=3	=3	=3
1E	0r	0r	0r
1E	.	.	.
=4	=4	=4	=4
0F	0r	0r	0r
=5	=5	=5	=5
0E	0B	0r	0r
=6	=6	=6	=6
1r	1B	0r	0r
1E	1B	.	.
=7	=7	=7	=7
1C	0c	0r	0r
1AA	.	.	.
=8	=8	=8	=8
[0E	1B	0r	0b
.	2.E	.	.
.	4F	.	.
=9	=9	=9	=9
0E]	2G	0r	1b
.	1A	.	.
.	.	.	1b
.	2G#i	.	.
=10	=10	=10	=10
0AA	0A	0e	0cc
=11	=11	=11	=11
0r	0E	1e	0b
.	.	1e	.
=12	=12	=12	=12
0r	0r	0f	1r
.	.	.	1a
=13	=13	=13	=13
0r	0r	0e	1cc
.	.	.	1b
=14	=14	=14	=14
0r	0r	1r	1.dd
.	.	1d	.
.	.	.	4cc
.	.	.	4b
=15	=15	=15	=15
0r	0r	1f	1a
.	.	1e	2g
.	.	.	[2c
=16	=16	=16	=16
0r	0r	1.g	4c]
.	.	.	4d
.	.	.	4e
.	.	.	4f
.	.	.	2g
.	.	4f	2a
.	.	4e	.
=17	=17	=17	=17
0r	0r	2d	2b
.	.	2c	1cc
.	.	1d	.
.	.	.	2b
=18	=18	=18	=18
0r	0r	0c	1cc
.	.	.	2r
.	.	.	2g
=19	=19	=19	=19
0r	0r	2r	1.a
.	.	2c	.
.	.	[1d	.
.	.	.	2a
=20	=20	=20	=20
0r	0r	2d]	1a
.	.	2d	.
.	.	1d	[1b
=21	=21	=21	=21
0r	0r	1.e	2b]
.	.	.	2b
.	.	.	1b
.	.	2e	.
=22	=22	=22	=22
0r	0r	1e	1g
.	.	1c	1e
=23	=23	=23	=23
0r	0r	1A	2r
.	.	.	2a
.	.	2r	2a
.	.	2d	2a
=24	=24	=24	=24
0r	0r	2d	1b
.	.	2d	.
.	.	1e	1g
=25	=25	=25	=25
0r	0r	2.c	2a
.	.	.	1cc
.	.	4d	.
.	.	4e	.
.	.	4f	.
.	.	[2g	2b
=26	=26	=26	=26
0r	0r	2g]	1a
.	.	2f	.
.	.	2e	2g
.	.	[2f	[2a
=27	=27	=27	=27
0r	0r	4f]	4a]
.	.	4e	4g
.	.	4d	4f
.	.	4c	4e
.	.	1d	1f
=28	=28	=28	=28
1.C	1r	0c	0e
.	[1G	.	.
2C	.	.	.
=29	=29	=29	=29
1C	2G]	0r	0r
.	2G	.	.
1BB	1G	.	.
=30	=30	=30	=30
1AA	1F	0r	0r
1C	1E	.	.
=31	=31	=31	=31
2C	1G	0r	0r
2C	.	.	.
2.E	2G	.	.
.	2G	.	.
4F	.	.	.
=32	=32	=32	=32
1G	2.B	0r	0r
.	4c	.	.
1r	1d	.	.
=33	=33	=33	=33
1G	1r	0r	0r
1G	1d	.	.
=34	=34	=34	=34
1r	1d	0r	0r
1D	1r	.	.
=35	=35	=35	=35
1F	1A	0r	0r
2r	1c	.	.
[2F	.	.	.
=36	=36	=36	=36
2F]	2r	0r	0r
2F	1c	.	.
2.C	.	.	.
.	2c	.	.
4D	.	.	.
=37	=37	=37	=37
4E	2.G	0r	0r
4F	.	.	.
1G	.	.	.
.	4A	.	.
.	4B	.	.
.	4c	.	.
4F	[2d	.	.
4E	.	.	.
=38	=38	=38	=38
2F	2d]	0r	0r
2G	4c	.	.
.	4B	.	.
2E	2c	.	.
2D	[2d	.	.
=39	=39	=39	=39
1F	4d]	0r	0r
.	4c	.	.
.	4A	.	.
.	4B	.	.
1E	4c	.	.
.	4B	.	.
.	[2B	.	.
=40	=40	=40	=40
2.D	2B]	0r	0r
.	2.A	.	.
4C	.	.	.
2AA	.	.	.
.	8GL	.	.
.	8FJ	.	.
2C	2E	.	.
=41	=41	=41	=41
2BB	2D	0r	0r
2GG	2.G	.	.
1AA	.	.	.
.	4F#i	.	.
.	2F#i	.	.
=42	=42	=42	=42
0GG	1G	0d	0b
.	2r	.	.
.	[2G	.	.
=43	=43	=43	=43
2r	2G]	1d	1b
2GG	4F	.	.
.	4E	.	.
2GG	1D	1d	1b
2GG	.	.	.
=44	=44	=44	=44
0C	0E	0G	0cc
=45	=45	=45	=45
[0D	0D	2.F	1a
.	.	4G	.
.	.	2A	1dd
.	.	2B-i	.
=46	=46	=46	=46
1D]	1d	2A	2dd
.	.	2.d	2dd
1G	2d	.	1b
.	.	4c	.
.	2d	4B	.
.	.	4A	.
=47	=47	=47	=47
2G	1B	2B	0g
2G	.	2G	.
1E	[1G	1g	.
=48	=48	=48	=48
0C	1G]	2g	0r
.	.	2g	.
.	2r	1e	.
.	2c	.	.
=49	=49	=49	=49
0r	2.c	[0c	1a
.	4d	.	.
.	2e	.	2g
.	2A	.	2a
=50	=50	=50	=50
0r	2e	0c]	2g
.	2.A	.	2.cc
.	4B	.	4dd
.	2c	.	2ee
=51	=51	=51	=51
1D	2.F	1d	0a
.	4G	.	.
2C	2A	2r	.
2D	2D	2d	.
=52	=52	=52	=52
2C	1A	2e	2r
2.F	.	1f	2.a
.	1r	.	.
4G	.	.	4b
2A	.	2e	2cc
=53	=53	=53	=53
1D	2r	1f	2a
.	2F	.	1dd
1r	2G	1e	.
.	2A	.	2cc#i
=54	=54	=54	=54
0D	2D	1d	[0dd
.	1A	.	.
.	.	2.D	.
.	2B	.	.
.	.	4E	.
=55	=55	=55	=55
2D	2A	2F	0dd]
2GG	2.B	2.G	.
1GG	.	.	.
.	4c	4A	.
.	2d	2B	.
=56	=56	=56	=56
2.C	[0G	1c	0r
4D	.	.	.
2E	.	2B	.
[2C	.	2c	.
=57	=57	=57	=57
4C]	0G]	1e	2r
4D	.	.	.
4E	.	.	2.g
4F	.	.	.
1G	.	1d	.
.	.	.	4a
.	.	.	2b
=58	=58	=58	=58
1C	1r	2c	1e
.	.	4B	.
.	.	4A	.
1r	2r	1B	1g
.	2B	.	.
=59	=59	=59	=59
0AA	1c	1A	2a
.	.	.	1cc
.	2A	[1e	.
.	[2c	.	4b
.	.	.	4a
=60	=60	=60	=60
1E	2c]	1e]	2g
.	4B	.	1a
.	4A	.	.
1E	1B	1e	.
.	.	.	2g#i
=61	=61	=61	=61
1.F	1.A	1.c	[0a
4E	4G	2d	.
4D	4F	.	.
=62	=62	=62	=62
2C	4G	2e	0a]
.	4F	.	.
2D	4E	1d	.
.	4D	.	.
1AA	1E	.	.
.	.	2c#i	.
=63	=63	=63	=63
1D	1D	0d	0r
1F	2r	.	.
.	2d	.	.
=64	=64	=64	=64
1E	2.c	0r	0r
.	4A	.	.
2C	2c	.	.
2D	[2B	.	.
=65	=65	=65	=65
1AA	2B]	1r	0r
.	1A	.	.
1BB	.	1d	.
.	2G#i	.	.
=66	=66	=66	=66
1AA	2.A	1c	1r
.	4G	.	.
2r	4F	2A	1a
.	4E	.	.
[2AA	[2F	[2c	.
=67	=67	=67	=67
4AA]	2F]	4c]	1cc
4BB	.	4B	.
4C	1E	1A	.
4D	.	.	.
1BB	.	.	1dd
.	2D	2G#i	.
=68	=68	=68	=68
1AA	1E	2.A	2.cc
.	.	4G	4b
2r	1r	2F	2a
2E	.	2E	2g
=69	=69	=69	=69
2D	0r	0A	2f
2C	.	.	1e
1F	.	.	.
.	.	.	2d
=70	=70	=70	=70
1E	0r	2G	0e
.	.	4g	.
.	.	4f	.
2r	.	4e	.
.	.	4d	.
2E	.	2g	.
=71	=71	=71	=71
2D	0r	2f	1r
2C	.	1e	.
1F	.	.	1a
.	.	2d	.
=72	=72	=72	=72
1E	0r	0e	2.g
.	.	.	4f
2r	.	.	4e
.	.	.	4d
2E	.	.	2g
=73	=73	=73	=73
2D	0r	1r	2f
2C	.	.	1e
1F	.	1A	.
.	.	.	2d
=74	=74	=74	=74
0E	1r	1G	1e
.	2r	2E	2r
.	2B	2G	2b
=75	=75	=75	=75
2r	2A	2A	2cc
2E	2G	2B	2b
2C	1c	2c	1a
2AA	.	[2e	.
=76	=76	=76	=76
1E	1B	2e]	0g
.	.	4d	.
.	.	4c	.
2r	2r	1B	.
2E	2B	.	.
=77	=77	=77	=77
2F	2A	2r	1r
2E	2G	2B	.
1A	1c	1A	1c
=78	=78	=78	=78
0E	1B	0G	0g
.	2r	.	.
.	2B	.	.
=79	=79	=79	=79
1r	2A	0r	2f
.	2G	.	2e
1AA	1c	.	1a
=80	=80	=80	=80
2.E	1B	1e	2.g
4F	.	.	4a
2G	2r	2d	2b
2C	2e	2e	[2cc
=81	=81	=81	=81
1D	2.d	1f	4cc]
.	.	.	4b
.	.	.	1a
.	4c	.	.
1E	1B	1e	.
.	.	.	2g#i
=82	=82	=82	=82
0AA	1.A	[0c	1.a
.	[2A	.	4g
.	.	.	4f
=83	=83	=83	=83
1r	2A]	0c]	0e
.	4G	.	.
.	4F	.	.
1C	4E	.	.
.	4D	.	.
.	2E	.	.
=84	=84	=84	=84
1D	1D	1r	2r
.	.	.	2a
1D	2r	1d	2a
.	2F	.	2a
=85	=85	=85	=85
1.E	1G	1B	1.g
.	1G	1c	.
2C	.	.	2e
=86	=86	=86	=86
1C	1.A	2c	1e
.	.	2A	.
2r	.	1A	1a
[2D	2F	.	.
=87	=87	=87	=87
2D]	1F	1d	1a
2D	.	.	.
[1E	1G	1B	[1g
=88	=88	=88	=88
2E]	1G	1.c	2g]
2C	.	.	2e
1C	1E	.	1e
.	.	2A	.
=89	=89	=89	=89
1D	1A	2A	1f
.	.	2d	.
1E	1G	[1B	[1e
=90	=90	=90	=90
1r	2G	2B]	1e]
.	2E	4A	.
.	.	4B	.
1C	1E	1c	1r
=91	=91	=91	=91
1D	2r	1A	2r
.	2F	.	2a
1D	2F	2r	2a
.	2F	2d	2a
=92	=92	=92	=92
1E	1G	1B	1g
1C	1A	1c	1e
=93	=93	=93	=93
1.D	0F	2A	1r
.	.	1d	.
.	.	.	1a
2D	.	2d	.
=94	=94	=94	=94
1E	1G	1B	1g
1C	1E	1c	1g
=95	=95	=95	=95
1D	2r	1A	1f
.	2F	.	.
1E	1G	1G	[1e
=96	=96	=96	=96
2E	1E	1.g	0e]
2C	.	.	.
[1C	1E	.	.
.	.	2e	.
=97	=97	=97	=97
2C]	2.A	0e	0r
2AA	.	.	.
.	4B	.	.
1AA	1c	.	.
=98	=98	=98	=98
1E	4B	2r	2r
.	4A	.	.
.	4G	2B	2g
.	4F	.	.
2C	2E	2c	2a
2D	[2F	[2B	2b
=99	=99	=99	=99
1AA	4F]	2B]	2cc
.	4E	.	.
.	1E	1A	2cc
1BB	.	.	1dd
.	2D	2G#i	.
=100	=100	=100	=100
0AA	[0E	[0A	[0cc
=101	=101	=101	=101
2r	0E]	1A]	0cc]
1AA	.	.	.
.	.	2r	.
2AA	.	2A	.
=102	=102	=102	=102
2C	1r	2G	0r
2AA	.	2A	.
2C	2r	2G	.
2AA	[2E	2A	.
=103	=103	=103	=103
2.C	2E]	2E	0r
.	2E	2A	.
4D	.	.	.
[1E	2G	2G	.
.	2E	2c	.
=104	=104	=104	=104
0E]	2G	2B	2r
.	2E	2G	1e
.	2.G	1G	.
.	.	.	2e
.	4A	.	.
=105	=105	=105	=105
0r	2B	0r	2g
.	2c	.	2e
.	2B	.	2g
.	[2e	.	2e
=106	=106	=106	=106
0r	2e]	2r	2.g
.	4d	1G	.
.	4c	.	4a
.	[1B	.	1b
.	.	2G	.
=107	=107	=107	=107
0r	1B]	2B	2g
.	.	2G	2b
.	1r	2B	2g
.	.	2G	[2b
=108	=108	=108	=108
0r	0r	2.B	4b]
.	.	.	4cc
.	.	.	2.dd
.	.	4c	.
.	.	1d	.
.	.	.	4cc
.	.	.	4b
.	.	.	4a
=109	=109	=109	=109
0r	0r	2.G	2b
.	.	.	2.g
.	.	4A	.
.	.	2B	.
.	.	.	4f
.	.	[2c	4e
.	.	.	4d
=110	=110	=110	=110
0r	0r	4c]	2c
.	.	4d	.
.	.	2e	2cc
.	.	1f	2a
.	.	.	[2dd
=111	=111	=111	=111
0r	0r	2d	4dd]
.	.	.	4cc
.	.	2.e	4b
.	.	.	4a
.	.	.	2g
.	.	4d	.
.	.	4c	[2cc
.	.	4B	.
=112	=112	=112	=112
0r	0r	2A	4cc]
.	.	.	4b
.	.	2c	1a
.	.	1B	.
.	.	.	2g#i
=113	=113	=113	=113
1r	1.A	0A	0a
[1D	.	.	.
.	2A	.	.
=114	=114	=114	=114
2D]	1B	0r	1r
2D	.	.	.
1E	1B	.	[1g
=115	=115	=115	=115
1E	1c	1.c	2g]
.	.	.	2g
1F	1A	.	1a
.	.	2c	.
=116	=116	=116	=116
1D	0r	1d	1a
1r	.	1d	1b
=117	=117	=117	=117
0r	1r	1e	1g
.	[1A	1c	1r
=118	=118	=118	=118
1.D	2A]	0r	0r
.	2A	.	.
.	1B	.	.
2D	.	.	.
=119	=119	=119	=119
1E	2B	1r	1.g
.	2B	.	.
2E	1c	[1c	.
2E	.	.	2g
=120	=120	=120	=120
1F	1A	2c]	1a
.	.	2c	.
1D	1r	1d	2a
.	.	.	2a
=121	=121	=121	=121
0r	0r	2d	1b
.	.	2d	.
.	.	1e	1g
=122	=122	=122	=122
1r	1.A	1c	0r
[1D	.	1r	.
.	2A	.	.
=123	=123	=123	=123
2D]	1B	0r	1r
2D	.	.	.
1E	2B	.	[1g
.	2B	.	.
=124	=124	=124	=124
2E	1c	1.c	2g]
2E	.	.	2g
1F	1A	.	1a
.	.	2c	.
=125	=125	=125	=125
1D	0r	1d	2a
.	.	.	2a
1G	.	2d	1b
.	.	2d	.
=126	=126	=126	=126
1C	1r	1e	1g
2.F	[1A	1c	1r
4G	.	.	.
=127	=127	=127	=127
2A	2A]	2c	1.e
2.AA	2A	1c	.
.	1c	.	.
4BB	.	.	.
4C	.	4B	2e
4D	.	4A	.
=128	=128	=128	=128
1E	1B	1G	1g
[1D	[1d	1A	1f
=129	=129	=129	=129
2D]	2d]	2F	1.a
2E	4c	2G	.
.	4B	.	.
2F	1A	2A	.
2G	.	2B	4g
.	.	.	4f
=130	=130	=130	=130
1.A	2r	1c	1e
.	1A	.	.
.	.	2A	2r
[2AA	2A	[2c	[2e
=131	=131	=131	=131
4AA]	1c	2c]	2e]
4BB	.	.	.
4C	.	4B	2e
4D	.	4A	.
1E	1B	1G	1g
=132	=132	=132	=132
1D	2.d	1A	2f
.	.	.	1a
.	4c	.	.
2D	4B	2F	.
.	4A	.	.
[2E	2c	[2G	2g
=133	=133	=133	=133
4E]	2B	4G]	2b
4D	.	4F	.
2C	1A	1E	2cc
1BB	.	.	1dd
.	2G#i	2D	.
=134	=134	=134	=134
1AA	[0Al	2E	2.cc
.	.	1e	.
.	.	.	4b
2r	.	.	4a
.	.	.	4g
[2D	.	[2A	[2a
=135	=135	=135	=135
2D]	0A_	4A]	4a]
.	.	4B	4g
2C	.	2c	2e
1D	.	1F	1f
=136	=136	=136	=136
0AAl	0A]	0cl	0el
!!LO:LB:i:g=z
=137||	=137||	=137||	=137||
*>B	*>B	*>B	*>B
*clefF4	*clefGv2	*clefGv2	*clefG2
*k[]	*k[]	*k[]	*k[]
*M2/1	*M2/1	*M2/1	*M2/1
*met(C|)	*met(C|)	*met(C|)	*met(C|)
!!section: Secunda pars: Lex Domini immaculata
!!!OMD: Secunda pars: Lex Domini immaculata
0r	0r	1r	0b
.	.	[1e	.
=138	=138	=138	=138
0r	0r	1e]	1.b
.	.	[1e	.
.	.	.	2g
=139	=139	=139	=139
0r	0r	2e]	1g
.	.	2c	.
.	.	1c	2r
.	.	.	2g
=140	=140	=140	=140
0r	0r	2r	1.cc
.	.	2c	.
.	.	[1f	.
.	.	.	2cc
=141	=141	=141	=141
0r	1r	2f]	1a
.	.	2f	.
.	[1B	1d	1b
=142	=142	=142	=142
0E	1B]	1.e	1g
.	[1B	.	[1g
.	.	4d	.
.	.	4c	.
=143	=143	=143	=143
1.E	2B]	2.B	2g]
.	2G	.	2e
.	.	4A	.
.	1G	2B	[1e
2C	.	[2c	.
=144	=144	=144	=144
1C	2r	2c]	1e]
.	2G	4B	.
.	.	4A	.
2r	[1c	1G	1r
2C	.	.	.
=145	=145	=145	=145
1.F	2c]	0A	0r
.	2c	.	.
.	1A	.	.
2F	.	.	.
=146	=146	=146	=146
1D	1.B	2r	0r
.	.	2d	.
1E	.	1B	.
.	2G	.	.
=147	=147	=147	=147
0AA	1A	1.c	0r
.	1c	.	.
.	.	4B	.
.	.	4A	.
=148	=148	=148	=148
0E	1B	0G	1r
.	1B	.	2r
.	.	.	2g
=149	=149	=149	=149
0AA	0A	1r	1a
.	.	2r	1cc
.	.	2c	.
=150	=150	=150	=150
0r	0r	1d	1b
.	.	1f	1a
=151	=151	=151	=151
2r	0r	1e	2g
2C	.	.	2cc
1D	.	2d	2b
.	.	4c	[2a
.	.	4B	.
=152	=152	=152	=152
1F	1r	2A	2a]
.	.	1d	4g
.	.	.	4f
1E	2r	.	1g
.	2G	2c#i	.
=153	=153	=153	=153
1D	1A	1d	1f
2.C	1c	2r	2.e
.	.	2e	.
4D	.	.	4f
=154	=154	=154	=154
2E	2B	2e	2g
2F	2A	2d	1a
1E	1B	2e	.
.	.	2e	2g#i
=155	=155	=155	=155
1AA	0A	0c	1a
2r	.	.	2r
[2A	.	.	[2cc
=156	=156	=156	=156
2A]	1r	0r	2cc]
2G	.	.	2b
2F	2r	.	2a
2F	[2c	.	2a
=157	=157	=157	=157
1E	2c]	2r	1g
.	2B	1g	.
1r	2A	.	1r
.	2A	2f	.
=158	=158	=158	=158
2r	1G	2e	1r
1G	.	2e	.
.	1r	1d	2r
2F	.	.	[2a
=159	=159	=159	=159
1E	1r	0r	2a]
.	.	.	2g
1D	2r	.	1f
.	[2A	.	.
=160	=160	=160	=160
1r	2A]	2r	1e
.	2G	1e	.
2r	1F	.	1r
[2D	.	4d	.
.	.	4c	.
=161	=161	=161	=161
2D]	2E	4B	0r
.	.	4A	.
2C	2A	1A	.
1BB	1d	.	.
.	.	2G#i	.
=162	=162	=162	=162
1AA	1c	1A	0r
2r	2r	1e	.
2A	2c	.	.
=163	=163	=163	=163
2F	2A	2f	0r
2.A	2.c	1e	.
4G	4B	.	.
2F	2A	2d	.
=164	=164	=164	=164
2E	2G	2c	0r
2D	2F	2B	.
2C	2E	2A	.
2BB	2D	2G#i	.
=165	=165	=165	=165
1AA	1E	[0A	1r
2r	1r	.	2r
2A	.	.	2cc
=166	=166	=166	=166
2F	0r	0A]	2a
2.A	.	.	2.cc
4G	.	.	4b
2F	.	.	2a
=167	=167	=167	=167
2E	0r	1r	2g
2D	.	.	2f
2C	.	2r	2e
2BB	.	2d	2d
=168	=168	=168	=168
1AA	0r	1c	[0e
1AA	.	2c	.
.	.	2c	.
=169	=169	=169	=169
1E	0r	2.B	0e]
.	.	4A	.
1E	.	2B	.
.	.	[2c	.
=170	=170	=170	=170
0AA	1c	4c]	0r
.	.	4B	.
.	.	4A	.
.	.	4G	.
.	2c	1A	.
.	2c	.	.
=171	=171	=171	=171
2.E	2.B	2G	0r
.	.	2.g	.
4F	4A	.	.
2G	2B	.	.
.	.	4f	.
[2A	[2c	4e	.
.	.	4d	.
=172	=172	=172	=172
4A]	4c]	2f	0r
4G	4B	.	.
4F	4A	1e	.
4E	4G	.	.
2F	2A	.	.
2G	2B	2d	.
=173	=173	=173	=173
0C	0c	1e	1g
.	.	1c	2g
.	.	.	[2a
=174	=174	=174	=174
1r	0r	2c	2a]
.	.	1d	1b
1G	.	.	.
.	.	[2e	[2g
=175	=175	=175	=175
2C	0r	2e]	2g]
2C	.	1c	1a
2F	.	.	.
2F	.	[2d	2a
=176	=176	=176	=176
1G	0r	2d]	1b
.	.	2d	.
1C	.	1e	1g
=177	=177	=177	=177
1F	0r	2c	1a
.	.	1d	.
1G	.	.	1b
.	.	2d	.
=178	=178	=178	=178
0C	0r	1e	0e
.	.	[1A	.
=179	=179	=179	=179
1D	0r	1A]	2r
.	.	.	2a
1E	.	2r	2g
.	.	2B	2e
=180	=180	=180	=180
1E	0r	2B	1g
.	.	2c	.
2r	.	1d	1f
2D	.	.	.
=181	=181	=181	=181
2C	0r	2G	0e
2AA	.	1A	.
1C	.	.	.
.	.	4G	.
.	.	4F	.
=182	=182	=182	=182
2BB	0r	2G	2r
2.AA	.	2A	1a
.	.	1c	.
4BB	.	.	.
4C	.	.	2a
4D	.	.	.
=183	=183	=183	=183
0E	0r	2B	2g
.	.	2G	2e
.	.	2.B	1g
.	.	4c	.
=184	=184	=184	=184
2r	0r	2.d	1f
1D	.	.	.
.	.	4c	.
.	.	2A	1f
2D	.	2B	.
=185	=185	=185	=185
2C	0r	1.c	0e
2AA	.	.	.
1C	.	.	.
.	.	4B	.
.	.	4A	.
=186	=186	=186	=186
0BB	1d	2G	0r
.	.	1A	.
.	2d	.	.
.	2d	2G#i	.
=187	=187	=187	=187
1.AA	2c	0A	0r
.	2A	.	.
.	2.c	.	.
[2C	.	.	.
.	4B	.	.
=188	=188	=188	=188
2C]	4A	1r	0r
.	4G	.	.
2BB	1G	.	.
1AA	.	1A	.
.	2F#i	.	.
=189	=189	=189	=189
0GG	0G	0B	1.d
.	.	.	2d
=190	=190	=190	=190
2r	0r	1c	1e
2C	.	.	.
1D	.	1A	1f
=191	=191	=191	=191
2.E	0r	1G	1g
4F	.	.	.
1G	.	2r	1e
.	.	2G	.
=192	=192	=192	=192
2r	0r	1A	1f
2D	.	.	.
1G	.	1B	1g
=193	=193	=193	=193
1C	0r	1c	1e
1D	.	1A	1f
=194	=194	=194	=194
2.E	0r	2G	2.g
.	.	2c	.
4F	.	.	4a
2G	.	2B	2b
[2C	.	[2e	[2cc
=195	=195	=195	=195
4C]	0r	1e]	2cc]
4D	.	.	.
2E	.	.	2b
2.AA	.	[1c	1a
4BB	.	.	.
=196	=196	=196	=196
4C	0r	2c]	1g
4D	.	.	.
4E	.	2B	.
4F	.	.	.
2G	.	2.G	2e
2E	.	.	[2g
.	.	4A	.
=197	=197	=197	=197
2G	0r	2B	4g]
.	.	.	4f
2A	.	2c	1e
1F	.	1A	.
.	.	.	2d
=198	=198	=198	=198
[0E	1B	1G	0e
.	2.G	1B	.
.	4A	.	.
=199	=199	=199	=199
0E_	0B	2.G	2r
.	.	.	2b
.	.	4A	.
.	.	[1B	2.g
.	.	.	4a
=200	=200	=200	=200
0E]	1.G	1B]	0b
.	.	[1G	.
.	2E	.	.
=201	=201	=201	=201
0r	[0E	2G]	1.g
.	.	2E	.
.	.	1E	.
.	.	.	2e
=202	=202	=202	=202
1r	0E_	1e	[0e
1E	.	2.c	.
.	.	4d	.
=203	=203	=203	=203
2.C	0E]	0e	0e_
4D	.	.	.
1E	.	.	.
=204	=204	=204	=204
2C	0r	2r	0e]
1C	.	2e	.
.	.	2.c	.
2AA	.	.	.
.	.	4d	.
=205	=205	=205	=205
0AA	0r	1e	0r
.	.	2.c	.
.	.	4A	.
=206	=206	=206	=206
2r	0r	2A	0r
2AA	.	2c	.
2BB	.	2d	.
2C	.	[2e	.
=207	=207	=207	=207
1D	0r	2e]	0r
.	.	1d	.
1E	.	.	.
.	.	2c	.
=208	=208	=208	=208
1D	0r	2.d	2r
.	.	.	2a
.	.	4c	.
1E	.	1B	2a
.	.	.	2g
=209	=209	=209	=209
1AA	2r	1A	2a
.	2A	.	1cc
1E	2A	1r	.
.	2G	.	2b
=210	=210	=210	=210
1r	2A	0r	1a
.	1c	.	.
2r	.	.	1g
[2G	2B	.	.
=211	=211	=211	=211
2G]	1A	0r	1r
2F	.	.	.
2G	1G	.	1g
2E	.	.	.
=212	=212	=212	=212
2F	2r	0r	1a
2A	2c	.	.
1G	1d	.	1b
=213	=213	=213	=213
1C	1e	0r	1g
1r	1c	.	1a
=214	=214	=214	=214
1r	1d	0r	2.b
.	.	.	4b
2r	2e	.	1e
2C	2e	.	.
=215	=215	=215	=215
1F	1A	0r	1r
2E	1r	.	1g
2G	.	.	.
=216	=216	=216	=216
2F	1c	0r	1a
2A	.	.	.
1G	1d	.	1b
=217	=217	=217	=217
1C	1e	0r	1g
1r	1c	.	1a
=218	=218	=218	=218
1r	1d	0r	1b
2r	2.e	.	1e
2G	.	.	.
.	4d	.	.
=219	=219	=219	=219
2A	2c	0r	2r
2G	2B	.	2g
2F	2r	.	2a
2G	2d	.	2b
=220	=220	=220	=220
2C	2e	0r	2g
2F	2c	.	2a
2D	2d	.	2b
2G	2e	.	2g
=221	=221	=221	=221
2A	2A	0r	2cc
2G	2e	.	2b
2F	2.f	.	2.dd
2D	.	.	.
.	4e	.	4cc
=222	=222	=222	=222
2G	2d	0r	4b
.	.	.	4a
2A	2c	.	1a
1E	1B	.	.
.	.	.	2g#i
=223	=223	=223	=223
1AA	1A	1.e	1a
1r	[1G	.	[1b
.	.	2e	.
=224	=224	=224	=224
0r	1G]	1e	2b]
.	.	.	2b
.	1r	1e	1b
=225	=225	=225	=225
0r	0r	1d	1b
.	.	[1f	1a
=226	=226	=226	=226
0r	0r	2f]	1.cc
.	.	4e	.
.	.	4d	.
.	.	2e	.
.	.	2f	4b
.	.	.	4a
=227	=227	=227	=227
1.E	1r	1g	0b
.	[1B	[1G	.
2E	.	.	.
=228	=228	=228	=228
1E	2B]	1G]	0r
.	2B	.	.
1E	1B	1r	.
=229	=229	=229	=229
1D	1B	0r	0r
[1F	1A	.	.
=230	=230	=230	=230
2F]	1.c	0r	0r
4E	.	.	.
4D	.	.	.
2E	.	.	.
2F	4B	.	.
.	4A	.	.
=231	=231	=231	=231
1G	2B	0r	1r
.	2c	.	.
[1GG	1d	.	[1b
=232	=232	=232	=232
0GG_	[0G	0r	2b]
.	.	.	2b
.	.	.	1b
=233	=233	=233	=233
1GG]	1G]	0r	1b
1r	1D	.	1a
=234	=234	=234	=234
0r	1.A	1e	1.cc
.	.	1e	.
.	4G	.	4b
.	4F	.	4a
=235	=235	=235	=235
0r	2E	1e	2b
.	2A	.	2cc
.	[1D	1d	[1dd
=236	=236	=236	=236
0r	1D]	1.f	2dd]
.	.	.	4cc
.	.	.	4b
.	1r	.	1a
.	.	4e	.
.	.	4d	.
=237	=237	=237	=237
0r	0r	2.e	1g
.	.	4f	.
.	.	1g	2r
.	.	.	2g
=238	=238	=238	=238
0r	0r	2r	1a
.	.	2c	.
.	.	1d	1b
=239	=239	=239	=239
0r	0r	1.e	2.e
.	.	.	4f
.	.	.	4g
.	.	.	4a
.	.	4d	[2b
.	.	4c	.
=240	=240	=240	=240
0r	0r	4d	2b]
.	.	4c	.
.	.	4B	1a
.	.	4A	.
.	.	1B	.
.	.	.	2g#i
=241	=241	=241	=241
0r	0r	2c	2a
.	.	2A	1cc
.	.	2c	.
.	.	2d	4b
.	.	.	4a
=242	=242	=242	=242
0r	1.G	1e	1g
.	.	1r	1g
.	2G	.	.
=243	=243	=243	=243
0r	1F	1.d	1a
.	1G	.	1b
.	.	2d	.
=244	=244	=244	=244
0r	1A	1c	1e
.	1D	1d	1a
=245	=245	=245	=245
1r	1G	1e	1g
[1D	[1F	[1A	1r
=246	=246	=246	=246
2D]	2F]	2A]	1r
2D	4E	2B	.
.	4D	.	.
1C	1E	2c	[1a
.	.	2e	.
=247	=247	=247	=247
1D	0r	2.d	2a]
.	.	.	2a
.	.	4c	.
1E	.	1B	1g
=248	=248	=248	=248
1AA	0r	1c	1a
1D	.	1d	1b
=249	=249	=249	=249
2C	0c	2G	1e
2.AA	.	2.c	.
.	.	.	1a
4BB	.	4d	.
4C	.	[2e	.
4D	.	.	.
=250	=250	=250	=250
0E	1.B	2e]	1.g
.	.	2e	.
.	.	[1e	.
.	[2G	.	[2g
=251	=251	=251	=251
1C	2G]	1e]	2g]
.	1c	.	4f
.	.	.	4e
1D	.	1d	1f
.	2B	.	.
=252	=252	=252	=252
1.A	0c	1.e	1e
.	.	.	[1cc
2A	.	4d	.
.	.	4c	.
=253	=253	=253	=253
1A	2r	2.e	2cc]
.	2A	.	2cc
.	.	4f	.
2G	2B	1g	2b
2E	2G	.	2b
=254	=254	=254	=254
1.F	1A	2.c	0a
.	.	4B	.
.	1c	2A	.
2E	.	2G	.
=255	=255	=255	=255
2D	2B	2F	0dd
2C	1A	2.E	.
1BB	.	.	.
.	.	4D	.
.	2G#i	2D	.
=256	=256	=256	=256
1AA	0A	2E	1cc
.	.	1e	.
[1A	.	.	2r
.	.	4d	[2cc
.	.	4c	.
=257	=257	=257	=257
2A]	2r	2e	2cc]
2A	2A	2f	2cc
2G	2B	1g	2b
2E	2G	.	2b
=258	=258	=258	=258
1.F	1A	2.c	0a
.	.	4B	.
.	1c	2A	.
2E	.	2G	.
=259	=259	=259	=259
2D	2B	2F	0dd
2C	1A	2.E	.
1BB	.	.	.
.	.	4D	.
.	2G#i	2D	.
=260	=260	=260	=260
0AAl	0Al	0El	0ccl
!!LO:LB:i:g=z
=261||	=261||	=261||	=261||
*>C	*>C	*>C	*>C
*clefF4	*clefGv2	*clefGv2	*clefG2
*k[]	*k[]	*k[]	*k[]
*M2/1	*M2/1	*M2/1	*M2/1
*met(C|)	*met(C|)	*met(C|)	*met(C|)
!!section: Tertia pars: Delicta quis intelligit
!!!OMD: Tertia pars: Delicta quis intelligit
1r	1c	0r	0r
1F	2c	.	.
.	2c	.	.
=262	=262	=262	=262
2F	1A	0r	0r
2F	.	.	.
1D	1A	.	.
=263	=263	=263	=263
1D	1.B	0r	0r
[1E	.	.	.
.	2E	.	.
=264	=264	=264	=264
2E]	1E	0r	1r
2AA	.	.	.
2AA	1r	.	1cc
2A	.	.	.
=265	=265	=265	=265
2A	2r	1f	2cc
2A	2.A	.	2cc
1F	.	2f	1a
.	4B	.	.
.	2c	2f	.
=266	=266	=266	=266
1F	2.d	1d	1a
.	4c	.	.
[1G	2.B	1d	[1b
.	4A	.	.
=267	=267	=267	=267
2G]	1G	1.e	2b]
2C	.	.	2e
2C	1c	.	1e
2C	.	2A	.
=268	=268	=268	=268
2C	2A	[0A	0r
2AA	2.c	.	.
[1AA	.	.	.
.	4B	.	.
.	4A	.	.
.	4G	.	.
=269	=269	=269	=269
0AA]	2F	0A]	2r
.	2.A	.	1cc
.	4G	.	.
.	4F	.	2cc
.	4E	.	.
=270	=270	=270	=270
0r	1F	2r	1a
.	.	1.f	.
.	1D	.	1a
=271	=271	=271	=271
0r	1r	2d	1.b
.	.	2d	.
.	1G	[1e	.
.	.	.	2e
=272	=272	=272	=272
1AA	1A	2e]	2e
.	.	2A	2.a
1AA	1c	2A	.
.	.	.	4g
.	.	2e	4f
.	.	.	4e
=273	=273	=273	=273
2D	2B	2d	2d
2E	4A	2c	1g
.	4G	.	.
1D	1A	1d	.
.	.	.	2f#i
=274	=274	=274	=274
[0GG	0G	1.B	1g
.	.	.	[1g
.	.	2G	.
=275	=275	=275	=275
0GG]	1.G	0G	2g]
.	.	.	2e
.	.	.	1e
.	2E	.	.
=276	=276	=276	=276
1.C	0E	1r	0r
.	.	[1c	.
2AA	.	.	.
=277	=277	=277	=277
1AA	1r	2c]	1.cc
.	.	2A	.
1r	[1c	[1A	.
.	.	.	2a
=278	=278	=278	=278
1.F	2c]	1A]	0a
.	2A	.	.
.	[1A	1r	.
2D	.	.	.
=279	=279	=279	=279
0D	1A]	1d	1r
.	1d	1f	1a
=280	=280	=280	=280
1E	1B	1e	1g
1E	2B	2E	2g
.	2B	2F	2f
=281	=281	=281	=281
2C	0c	1G	0e
2C	.	.	.
1C	.	2E	.
.	.	2F	.
=282	=282	=282	=282
0GG	0B	0G	0d
=283	=283	=283	=283
2r	0r	1.A	1.f
1D	.	.	.
2C	.	2A	2e
=284	=284	=284	=284
2AA	0r	2A	2e
2C	.	2G	2e
1D	.	1F	1d
=285	=285	=285	=285
1AA	1.A	2E	0e
.	.	2.e	.
1r	.	.	.
.	.	4f	.
.	2G	[2g	.
=286	=286	=286	=286
0r	2E	4g]	0r
.	.	4f	.
.	2G	1e	.
.	1F	.	.
.	.	2d	.
=287	=287	=287	=287
1AA	1E	0e	0r
[1C	1E	.	.
=288	=288	=288	=288
2C]	1.G	0r	0r
2BB	.	.	.
1GG	.	.	.
.	2F	.	.
=289	=289	=289	=289
1.D	1D	0r	0r
.	[1A	.	.
2D	.	.	.
=290	=290	=290	=290
1AA	2A]	0r	0r
.	2A	.	.
1D	1A	.	.
=291	=291	=291	=291
1C	1E	1r	1r
1AA	1A	1c	1a
=292	=292	=292	=292
1r	1G	1B	1b
1AA	1E	1A	[1cc
=293	=293	=293	=293
1.C	1r	1.e	2cc]
.	.	.	4b
.	.	.	4a
.	1E	.	[1g
2D	.	4d	.
.	.	4c	.
=294	=294	=294	=294
1E	1.G	2B	2g]
.	.	1e	1b
1F	.	.	.
.	2A	2d	[2a
=295	=295	=295	=295
1E	1B	0e	2a]
.	.	.	2g
1A	1c	.	1a
=296	=296	=296	=296
1G	2B	2r	1r
.	2.e	2.g	.
1E	.	.	2r
.	4d	4f	.
.	4c	[2e	2g
.	4B	.	.
=297	=297	=297	=297
0F	0A	2e]	2a
.	.	4d	2.cc
.	.	4c	.
.	.	1d	.
.	.	.	4b
.	.	.	[2a
=298	=298	=298	=298
0E	0B	0e	2a]
.	.	.	4g#i
.	.	.	4f#i
.	.	.	1g#i
=299	=299	=299	=299
1AA	0A	1c	0a
2r	.	2r	.
2c	.	2e	.
=300	=300	=300	=300
2B	0r	2d	0r
2A	.	2c	.
2.B	.	2.d	.
4A	.	4c	.
=301	=301	=301	=301
2G	0r	2B	0r
2F	.	2A	.
2E	.	2G	.
2D	.	2F	.
=302	=302	=302	=302
2C	1r	2E	1r
2BB	.	2D	.
1AA	2r	1E	2r
.	2c	.	2a
=303	=303	=303	=303
0r	2B	0r	2g
.	2A	.	2f
.	2.B	.	2.g
.	4A	.	4f
=304	=304	=304	=304
0r	2G	0r	2e
.	2F	.	2a
.	2E	.	2g
.	2D	.	2f
=305	=305	=305	=305
1r	2C	1r	2e
.	2BB	.	2d
2r	2AA	2r	1e
2c	2A	2e	.
=306	=306	=306	=306
2B	2d	2d	0r
2A	2c	2e	.
2.B	2.d	2.g	.
4A	4c	4f	.
=307	=307	=307	=307
2G	2B	2e	0r
2F	2A	2d	.
2E	2G	2c	.
2D	2F	2B	.
=308	=308	=308	=308
2C	2E	2A	0r
2BB	2D	2G#i	.
1AA	[1E	[1A	.
=309	=309	=309	=309
2r	1E]	1A]	0r
2AA	.	.	.
1C	2r	1G	.
.	2E	.	.
=310	=310	=310	=310
0GG	1G	1r	2r
.	.	.	2e
.	2.D	2r	1g
.	.	2B	.
.	4E	.	.
=311	=311	=311	=311
2r	1F	1d	1d
2D	.	.	.
1D	2.F	2.A	1f
.	4G	4B	.
=312	=312	=312	=312
4AA	1A	4c	2.e
4BB	.	4d	.
4C	.	1e	.
4D	.	.	4f
2E	2G	.	2g
2F	2d	[2d	[2a
=313	=313	=313	=313
2G	2B	4d]	2a]
.	.	8cL	.
.	.	8BJ	.
2E	2G	2c	1g
1D	1A	1d	.
.	.	.	2f#i
=314	=314	=314	=314
0GG	0G	0B	1g
.	.	.	2r
.	.	.	2b
=315	=315	=315	=315
0r	2r	0r	2cc
.	2B	.	2b
.	2c	.	2.g
.	2B	.	.
.	.	.	4a
=316	=316	=316	=316
0r	2.G	0r	1b
.	4A	.	.
.	1B	.	2r
.	.	.	2b
=317	=317	=317	=317
0r	2r	0r	2cc
.	2B	.	2b
.	2c	.	2.g
.	2B	.	.
.	.	.	4a
=318	=318	=318	=318
2r	1G	2r	1b
2E	.	2G	.
2F	1r	2A	1r
2G	.	2B	.
=319	=319	=319	=319
2.A	0r	2c	0r
.	.	4A	.
4G	.	4B	.
2E	.	4c	.
.	.	4d	.
[2G	.	[2e	.
=320	=320	=320	=320
4G]	2r	2e]	0r
4F	.	.	.
2E	2G	2c	.
1D	2A	1d	.
.	2B	.	.
=321	=321	=321	=321
2.C	2.c	1G	0r
4D	4B	.	.
2E	2G	1r	.
[2D	[2B	.	.
=322	=322	=322	=322
4D]	2B]	0r	0r
4C	.	.	.
4BB	1A	.	.
4AA	.	.	.
1BB	.	.	.
.	2G#i	.	.
=323	=323	=323	=323
1AA	1A	0r	2r
.	.	.	2a
1r	2r	.	2b
.	2A	.	2cc
=324	=324	=324	=324
0r	2B	0r	2dd
.	2c	.	2a
.	2d	.	2b
.	2A	.	[2cc
=325	=325	=325	=325
0r	2c	0r	4cc]
.	.	.	4b
.	2d	.	1a
.	1B	.	.
.	.	.	2g#i
=326	=326	=326	=326
2r	1A	2r	2a
2A	.	2e	2a
2G	2r	2g	2b
2A	2A	2e	2cc
=327	=327	=327	=327
2D	2B	1f	2dd
2A	2c	.	2a
2G	2d	2g	2b
[2A	2A	[2e	[2cc
=328	=328	=328	=328
4A]	2c	4e]	4cc]
4G	.	4d	4b
2F	2d	2d	1a
1E	1B	1e	.
.	.	.	2g#i
=329	=329	=329	=329
2F	1A	2r	1a
2D	.	2d	.
2r	1r	2e	1r
2D	.	2f	.
=330	=330	=330	=330
2E	0r	2g	0r
2F	.	2d	.
2G	.	2e	.
2D	.	[2f	.
=331	=331	=331	=331
2F	0r	4f]	0r
.	.	4e	.
2G	.	1d	.
2E	.	.	.
2E	.	2c#i	.
=332	=332	=332	=332
2D	1r	2.d	2r
2F	.	.	2a
.	.	4c	.
2G	2r	2B	2b
2A	2A	2A	2cc
=333	=333	=333	=333
2G	2B	2r	2dd
2A	2c	2e	2a
2D	2d	2d	2b
2A	2A	2e	2cc
=334	=334	=334	=334
2G	2B	2.g	2b
2C	2c	.	2.g
.	.	4f	.
1G	2B	4e	.
.	.	4d	4a
.	2G	[2e	[2b
=335	=335	=335	=335
1F	1A	2e]	4b]
.	.	.	4a
.	.	2d	1a
1E	1B	1e	.
.	.	.	2g#i
=336	=336	=336	=336
2AA	2A	2c	0a
1A	1c	1f	.
2A	2c	2f	.
=337	=337	=337	=337
1G	1B	1e	0r
1F	1A	1d	.
=338	=338	=338	=338
1A	1c	1f	0r
2G	2B	2e	.
2F	[2A	[2d	.
=339	=339	=339	=339
2G	4A]	4d]	0r
.	4G	4c	.
2E	1G	1c	.
1D	.	.	.
.	2F	2B	.
=340	=340	=340	=340
1C	1G	1c	1.cc
1r	[1A	[1f	.
.	.	.	2cc
=341	=341	=341	=341
0r	2A]	2f]	1cc
.	2A	2f	.
.	2A	1f	1a
.	2A	.	.
=342	=342	=342	=342
0r	1G	1d	1b
.	1C	1e	1cc
=343	=343	=343	=343
0r	1r	1f	1a
.	[1G	1d	[1g
=344	=344	=344	=344
1.C	2G]	1.c	1g]
.	2G	.	.
.	1G	.	1r
2C	.	4B	.
.	.	4A	.
=345	=345	=345	=345
1C	1E	1G	0r
1AA	1F	1A	.
=346	=346	=346	=346
1BB	1G	1G	0r
1C	1E	1c	.
=347	=347	=347	=347
0GG	0D	0B	2r
.	.	.	1g
.	.	.	2g
=348	=348	=348	=348
0GG	1r	0r	1g
.	1G	.	1e
=349	=349	=349	=349
0r	1A	0r	1f
.	1B	.	1g
=350	=350	=350	=350
1r	1c	0r	1e
2r	[1B	.	1d
[2G	.	.	.
=351	=351	=351	=351
2G]	1B]	0r	2r
2G	.	.	1g
1E	1G	.	.
.	.	.	2g
=352	=352	=352	=352
0C	[0A	2r	1cc
.	.	1e	.
.	.	.	1cc
.	.	2e	.
=353	=353	=353	=353
0F	0A]	2.f	0a
.	.	4e	.
.	.	2c	.
.	.	2d	.
=354	=354	=354	=354
[0E	[0G	1.e	0b
.	.	4d	.
.	.	4c	.
=355	=355	=355	=355
0E]	0G_	0B	2r
.	.	.	1e
.	.	.	2e
=356	=356	=356	=356
2.E	0G]	1r	1g
4F	.	.	.
1G	.	1d	1g
=357	=357	=357	=357
0D	0r	1.f	1.a
.	.	2e	2g
=358	=358	=358	=358
1D	1r	2d	2f
.	.	2c	2.e
1D	1A	1d	.
.	.	.	4d
.	.	.	2d
=359	=359	=359	=359
2.C	1.c	2A	[0el
.	.	1e	.
4D	.	.	.
4E	.	.	.
4F	.	.	.
2G	2B	2d	.
=360	=360	=360	=360
4C	2A	2c	0e_
4D	.	.	.
2E	2G	2B	.
1AA	1A	1A	.
=361	=361	=361	=361
1.C	[0El	1G	0e_
.	.	[1c	.
2BB	.	.	.
=362	=362	=362	=362
2AA	0E_	2c]	0e_
2GG	.	2B	.
1AA	.	1A	.
=363	=363	=363	=363
0El	0E]	0Gl	0e]
==	==	==	==
*-	*-	*-	*-
!!!RDF**kern: l=long note in original notation
!!!system-decoration: s1,s2,s3,s4
!!!RDF**kern: i = editorial accidental
!!!ENC: Chris Gage 04-21-2014
!!!END: 2020/10/21/
!!!EED: Jesse Rodin
!!!EEV: 2020/10/23/
!!attribution-level@Jos: 4a (the rest [double question mark])
!!!ONB: Translated from MusicXML and edited on 2020/10/23/ by Craig Sapp
!!muse2ps: C^@{COA}??\n@{SCT}^i2I150v85,85,85,150c99
